src/assets/icons/logout.svg

<svg width="16" height="16" viewBox="0 0 16 16" fill="none" xmlns="http://www.w3.org/2000/svg">
<g clip-path="url(#clip0_8874_15300)">
<path fill-rule="evenodd" clip-rule="evenodd" d="M7.5815 0.00526881C7.54388 0.00896291 7.41304 0.0202846 7.29076 0.0304263C5.12194 0.210154 3.05065 1.33759 1.69876 3.07427C0.172864 5.03447 -0.362009 7.59286 0.254613 9.98183C0.878675 12.3995 2.55932 14.3647 4.84514 15.3495C7.24537 16.3837 10.022 16.1744 12.2333 14.7925C12.7329 14.4804 13.2225 14.0943 13.6312 13.6902C13.8256 13.498 13.8703 13.4437 13.9235 13.335C14.0493 13.0782 14.0528 12.8242 13.934 12.574C13.7729 12.2347 13.393 12.0389 13.0179 12.1021C12.8175 12.1359 12.7108 12.2011 12.4499 12.4494C11.8935 12.9791 11.4291 13.3133 10.8379 13.6094C9.10672 14.4767 7.15232 14.5126 5.37786 13.7099C4.11603 13.139 3.04085 12.1053 2.40847 10.855C1.94047 9.92965 1.72397 9.02643 1.72397 7.99913C1.72397 6.97183 1.94047 6.06861 2.40847 5.14325C3.02395 3.92639 4.06931 2.90433 5.2849 2.33096C7.04182 1.50223 9.01635 1.50555 10.7369 2.34012C11.4104 2.66679 11.8637 2.98784 12.4685 3.56622C12.7081 3.79537 12.8205 3.86291 13.0179 3.89616C13.393 3.95931 13.7729 3.7636 13.934 3.42427C14.0528 3.17406 14.0493 2.92001 13.9235 2.66322C13.8703 2.55457 13.8256 2.50027 13.6312 2.30809C12.3149 1.00661 10.6142 0.214874 8.7359 0.0291436C8.55081 0.0108442 7.70303 -0.00670278 7.5815 0.00526881ZM12.7891 4.95598C12.6458 4.98054 12.4642 5.07782 12.348 5.19223C12.0821 5.45404 12.0176 5.8465 12.1846 6.18586C12.2408 6.30005 12.2913 6.35799 12.6579 6.72886L13.0682 7.14401H10.2102C8.17468 7.14401 7.32623 7.1495 7.26167 7.16308C7.00189 7.21773 6.74477 7.43876 6.64727 7.69129C6.59631 7.82332 6.58454 8.07342 6.62234 8.22148C6.69735 8.51534 6.96365 8.77015 7.26511 8.83647C7.31416 8.84726 8.38055 8.85356 10.2051 8.85383L13.0682 8.85424L12.6579 9.2694C12.2913 9.64026 12.2408 9.6982 12.1846 9.8124C12.0176 10.1518 12.0821 10.5442 12.348 10.806C12.631 11.0847 13.0776 11.1347 13.4034 10.9242C13.4465 10.8963 14.0179 10.3365 14.673 9.68006C15.6218 8.72952 15.8734 8.46833 15.9088 8.39705C16.0354 8.14248 16.0354 7.85578 15.9088 7.60121C15.8734 7.52993 15.6218 7.26874 14.673 6.3182C14.0179 5.66176 13.4465 5.10192 13.4034 5.07408C13.2396 4.96826 12.9935 4.92094 12.7891 4.95598Z" fill="currentColor"/>
</g>
<defs>
<clipPath id="clip0_8874_15300">
<rect width="16" height="16" fill="white" transform="translate(0 -0.000732422)"/>
</clipPath>
</defs>
</svg>

<svg xmlns="http://www.w3.org/2000/svg" width="16" height="16" fill="none">
  <g clip-path="url(#a)">
    <path fill="currentColor" fill-rule="evenodd" d="M7.582.005A30.91 30.91 0 0 1 7.29.03C5.12.21 3.05 1.338 1.699 3.074A8.007 8.007 0 0 0 .255 9.982a7.99 7.99 0 0 0 4.59 5.368 8.005 8.005 0 0 0 8.786-1.66c.195-.192.24-.246.293-.355a.836.836 0 0 0 .01-.761.862.862 0 0 0-.916-.472c-.2.034-.307.1-.568.347-.556.53-1.02.864-1.612 1.16a6.281 6.281 0 0 1-8.43-2.754 6.093 6.093 0 0 1-.684-2.856c0-1.027.216-1.93.684-2.856a6.297 6.297 0 0 1 2.877-2.812c1.757-.829 3.731-.825 5.452.01.673.326 1.127.647 1.732 1.225.24.23.351.297.549.33a.862.862 0 0 0 .916-.472.836.836 0 0 0-.01-.76c-.054-.11-.098-.164-.293-.356C12.315 1.007 10.614.215 8.736.03A15.33 15.33 0 0 0 7.58.005Zm5.207 4.951a.924.924 0 0 0-.441.236.851.851 0 0 0-.163.994c.056.114.106.172.473.543l.41.415H10.21c-2.035 0-2.884.005-2.948.02a.903.903 0 0 0-.615.527 1.067 1.067 0 0 0-.025.53.882.882 0 0 0 .643.615c.05.011 1.116.018 2.94.018h2.863l-.41.415c-.367.371-.417.43-.473.543a.858.858 0 0 0 1.219 1.112c.043-.028.614-.588 1.269-1.244.949-.95 1.2-1.212 1.236-1.283a.881.881 0 0 0 0-.796c-.036-.071-.287-.332-1.236-1.283-.655-.656-1.226-1.216-1.27-1.244a.92.92 0 0 0-.614-.118Z" clip-rule="evenodd"/>
  </g>
  <defs>
    <clipPath id="a">
      <path fill="#fff" d="M0 0h16v16H0z"/>
    </clipPath>
  </defs>
</svg>
